X:3
T:Off she goes
R:Jig
O:England
M:6/8
K:D
P:A
A|\
F2A G2B|ABc d2A|F2A G2B|AFD E2D|\
F2A G2B|ABc d2e|f2d g2f|edc d2::
P:B
g|\
f/2g/2af d2f|g/2a/2bg e2g|f/2g/2af d2f|ecA A2g|\
f/2g/2af d2f|g/2a/2bg e2g|fed g2f|edc d2:|
